X:263
T:Donnybrook Fair
M:6/8
L:1/8
R:jig
N:Learned from Tracy Lau
Z:Michael Abraham Shulman
K:G
D|~G3 AGA|Bee dBA|BAB GAB|AGE GED|~G3 AGA|Bee dBA|BAB GAB|AGF G2:|
f|gfe fed|ege dBA|Bee fed|Bee e2f|~g3 fed|ege dBA|BAB GAB|AGF G2f|
gfe fed|ege dBA|Bee fed|Bee e2f|~g3 aga|bge dBA|BAB GAB|AGF G2f||
